X:496
T:Log Cabin, The
R:reel
D:De Danann: Selected Reels, Jigs and Songs
Z:id:hn-reel-496
M:C|
K:Dmix
A,D~D2 FGAB|=cdDE FDA^c|~d2^cA (3B^cdAG|FGDB, ~=C2B,C|
A,D~DE FGAB|=cdDE FDA^c|~d3A BAGF|1 ED^CE ~D2B,D:|2 ED^CE D2~d2||
|:d2fd Adfa|~g2fg egfe|defd AddB|=cAGE CDEC|
Ddfd Adfd|^cdef geag|fge^c dBAG|1 FGEF D2~d2:|2 FGEF ~D2B,D||
